outputs/icons/communication/call_back_round.svg

<svg xmlns="http://www.w3.org/2000/svg" width="1200" height="1200" fill="none"><g fill="#000" clip-path="url(#a)"><path d="M742.525 165.62V98.495c0-16.875-20.25-25.125-31.875-13.125l-105 104.625c-7.5 7.5-7.5 19.125 0 26.625l104.625 104.625c12 11.625 32.25 3.375 32.25-13.5V240.62c124.125 0 225 100.875 225 225 0 29.625-5.625 58.5-16.5 84.375-5.625 13.5-1.5 28.875 8.625 39 19.125 19.125 51.375 12.375 61.5-12.75 13.875-34.125 21.375-71.625 21.375-110.625 0-165.75-134.25-300-300-300M655.57 845.01l126-125c11.5-11.5 28.5-16.5 45-13l183.5 36.5c23 4.5 40 25 40 49v207.5c0 28-23.5 51.5-51.5 50-144.5-8.5-280-53-398.5-121.5-136.002-79-249.502-192-328.502-328.5-69-118.498-113-253.998-121.5-398.498-1.5-28 22-51.5 50-51.5h207.5c24 0 44.5 17 49 40l37.5 184c3 16.5-2 33-13.5 45l-125 125.998a807.2 807.2 0 0 0 300.002 300"/></g><defs><clipPath id="a"><path fill="#fff" d="M0 0h1200v1200H0z"/></clipPath></defs></svg>

<svg width="1200" height="1200" viewBox="0 0 1200 1200" fill="none" xmlns="http://www.w3.org/2000/svg"><g clip-path="url(#clip0_5130_227)"><path d="M742.525 165.608V98.483C742.525 81.608 722.275 73.358 710.65 85.358L605.65 189.983C598.15 197.483 598.15 209.108 605.65 216.608L710.275 321.233C722.275 332.858 742.525 324.608 742.525 307.733V240.608C866.65 240.608 967.525 341.483 967.525 465.608C967.525 495.233 961.9 524.11 951.025 549.985C945.4 563.485 949.525 578.86 959.65 588.985C978.775 608.11 1011.025 601.36 1021.15 576.235C1035.025 542.11 1042.525 504.61 1042.525 465.608C1042.525 299.858 908.275 165.608 742.525 165.608Z" fill="#1D1E23"/><path d="M655.57 845L781.57 720C793.07 708.5 810.07 703.5 826.57 707L1010.07 743.5C1033.07 748 1050.07 768.5 1050.07 792.5V1000C1050.07 1028 1026.57 1051.5 998.57 1050C854.07 1041.5 718.57 997 600.07 928.5C464.068 849.5 350.568 736.5 271.568 600C202.568 481.5 158.568 346 150.068 201.5C148.568 173.5 172.068 150 200.068 150H407.568C431.568 150 452.068 167 456.568 190L494.068 374C497.068 390.5 492.068 407 480.568 419L355.568 545C427.068 670 530.57 773.5 655.57 845Z" fill="#1D1E23"/></g><defs><clipPath id="clip0_5130_227"><path width="24" fill="white" d="M0 0H1200V1200H0V0z"/></clipPath></defs></svg>
